findly-builder/apps/searchassist/src/assets/icons/onboarding/logo.svg

<svg width="186" height="23" viewBox="0 0 186 23" fill="none" xmlns="http://www.w3.org/2000/svg">
<g clip-path="url(#clip0_4032_46752)">
<path d="M23.141 6.13333V21.4667C23.141 21.8733 22.9785 22.2633 22.6892 22.5509C22.3999 22.8385 22.0075 23 21.5983 23H6.17094C4.53431 23 2.9647 22.3538 1.80743 21.2036C0.650151 20.0534 0 18.4933 0 16.8667V6.13333C0 4.50667 0.650151 2.94663 1.80743 1.79641C2.9647 0.646189 4.53431 0 6.17094 0L16.9701 0C18.6067 0 20.1763 0.646189 21.3336 1.79641C22.4909 2.94663 23.141 4.50667 23.141 6.13333Z" fill="#FAB900"/>
<path d="M17.7413 16.1005L15.3115 13.6855C15.8944 12.8105 16.2031 11.7833 16.1986 10.7339C16.1986 9.67243 15.8819 8.63484 15.2886 7.7523C14.6953 6.86975 13.852 6.18189 12.8653 5.7757C11.8787 5.36951 10.793 5.26323 9.74559 5.47031C8.69817 5.67738 7.73606 6.18851 6.98092 6.93905C6.22577 7.68959 5.71151 8.64584 5.50317 9.68687C5.29482 10.7279 5.40175 11.807 5.81043 12.7876C6.21912 13.7682 6.91119 14.6064 7.79915 15.1961C8.68711 15.7858 9.73106 16.1005 10.799 16.1005C11.8549 16.105 12.8884 15.7982 13.7688 15.2189L16.1986 17.6339C16.4031 17.8372 16.6806 17.9514 16.9699 17.9514C17.2593 17.9514 17.5367 17.8372 17.7413 17.6339C17.9459 17.4305 18.0608 17.1547 18.0608 16.8672C18.0608 16.5796 17.9459 16.3039 17.7413 16.1005ZM14.1853 12.5662C13.8282 13.2127 13.293 13.7446 12.6426 14.0995C12.0778 14.4082 11.4435 14.5691 10.799 14.5672C10.0362 14.5672 9.2905 14.3424 8.65625 13.9212C8.02199 13.4999 7.52765 12.9013 7.23574 12.2008C6.94382 11.5004 6.86744 10.7296 7.01626 9.98601C7.16508 9.24242 7.53241 8.55938 8.0718 8.02328C8.61118 7.48718 9.29841 7.12209 10.0466 6.97418C10.7947 6.82627 11.5702 6.90218 12.2749 7.19232C12.9797 7.48245 13.582 7.97378 14.0058 8.60417C14.4296 9.23456 14.6558 9.9757 14.6558 10.7339C14.6577 11.3744 14.4958 12.0049 14.1853 12.5662Z" fill="white"/>
<path d="M11.3471 11.2758C11.2392 11.384 11.1014 11.4577 10.9512 11.4877C10.8009 11.5176 10.6452 11.5024 10.5037 11.444C10.3621 11.3856 10.2413 11.2867 10.1567 11.1598C10.072 11.0329 10.0272 10.8838 10.0281 10.7315C10.0281 10.5282 9.94682 10.3332 9.80216 10.1894C9.6575 10.0456 9.4613 9.96484 9.25672 9.96484C9.05214 9.96484 8.85594 10.0456 8.71128 10.1894C8.56662 10.3332 8.48535 10.5282 8.48535 10.7315C8.48575 11.1861 8.62169 11.6304 8.876 12.0083C9.1303 12.3861 9.49157 12.6806 9.91416 12.8545C10.3368 13.0284 10.8017 13.074 11.2504 12.9854C11.699 12.8968 12.1111 12.6781 12.4348 12.3568C12.5611 12.2102 12.6272 12.0215 12.6197 11.8286C12.6122 11.6356 12.5317 11.4526 12.3943 11.316C12.2569 11.1795 12.0728 11.0995 11.8786 11.0921C11.6845 11.0846 11.4947 11.1502 11.3471 11.2758Z" fill="white"/>
<path d="M37.1257 20.8925C32.8369 20.8925 29.8517 18.5925 29.4814 14.9662H32.9603C33.3229 16.7908 34.989 17.9102 37.334 17.9102C39.2701 17.9102 40.4194 17.1435 40.4194 15.8325C40.4194 14.7898 39.6481 14.1228 38.1053 13.8545L35.1973 13.2795C31.811 12.6125 30.2297 10.9795 30.2297 8.25018C30.2297 4.93818 32.9063 2.71484 36.8943 2.71484C38.437 2.71484 43.5743 3.12118 44.1452 8.22718H40.6663C40.4426 6.97751 39.6327 5.56684 37.1257 5.56684C35.1201 5.56684 33.8782 6.46384 33.8782 7.90518C33.8782 9.34651 35.1587 9.82951 36.5472 10.1132L38.7456 10.5578C42.4636 11.3245 44.0526 12.7812 44.0526 15.4108C44.0526 18.7382 41.3374 20.8925 37.1257 20.8925Z" fill="#222222"/>
<path d="M52.4528 20.9159C51.5841 20.9519 50.7173 20.8101 49.9061 20.4995C49.0948 20.1888 48.3564 19.7159 47.7366 19.1099C47.1169 18.504 46.6289 17.778 46.303 16.9769C45.9771 16.1758 45.8203 15.3167 45.8421 14.4529C45.8005 13.5912 45.9402 12.7302 46.2524 11.9252C46.5645 11.1201 47.0422 10.3887 47.6549 9.77753C48.2676 9.16639 49.0019 8.68902 49.8107 8.37594C50.6196 8.06285 51.4853 7.92093 52.3525 7.95925C55.9471 7.95925 58.4617 10.5199 58.4617 14.1922C58.4673 14.533 58.4493 14.8737 58.4077 15.2119H49.0587V15.3882C49.1667 16.1914 49.5805 16.9229 50.2147 17.432C50.8489 17.9412 51.6555 18.1893 52.4682 18.1252C52.886 18.1648 53.3071 18.0992 53.6927 17.9344C54.0782 17.7696 54.4158 17.5109 54.6743 17.1822H58.184C57.4744 19.4286 55.1757 20.9159 52.4528 20.9159ZM52.3756 10.6502C51.6196 10.6072 50.874 10.842 50.2808 11.3099C49.6877 11.7779 49.2884 12.4463 49.159 13.1879L49.1127 13.3796H55.1757V13.2032C55.1641 12.8484 55.0807 12.4994 54.9305 12.1773C54.7803 11.8551 54.5664 11.5663 54.3015 11.328C54.0366 11.0898 53.7261 10.907 53.3886 10.7905C53.0511 10.6741 52.6935 10.6264 52.3371 10.6502H52.3756Z" fill="#222222"/>
<path d="M65.9524 20.783C64.2972 20.7468 62.7239 20.0599 61.5774 18.8729C60.4308 17.6859 59.8044 16.0956 59.8354 14.4504C59.8044 13.6303 59.9393 12.8124 60.2322 12.045C60.525 11.2777 60.9698 10.5766 61.5402 9.98323C62.1106 9.38986 62.795 8.91629 63.5529 8.59058C64.3107 8.26488 65.1267 8.09365 65.9524 8.08705C67.1796 8.06403 68.3867 8.39994 69.4235 9.05305L69.6626 9.20638V8.34771H73.0027V20.5224H69.6704V19.6637L69.4312 19.817C68.3922 20.4716 67.1823 20.8076 65.9524 20.783ZM66.554 10.8164C66.0891 10.8271 65.6309 10.9301 65.2065 11.1191C64.7821 11.3081 64.3999 11.5795 64.0823 11.9172C63.7648 12.255 63.5183 12.6523 63.3572 13.086C63.1962 13.5197 63.1239 13.9809 63.1446 14.4427C63.1281 14.9005 63.2037 15.3569 63.367 15.7853C63.5303 16.2137 63.778 16.6054 64.0955 16.9374C64.413 17.2694 64.794 17.5351 65.2162 17.7189C65.6384 17.9027 66.0932 18.0009 66.554 18.0077C67.1517 18.0259 67.7449 17.8993 68.2825 17.6388C68.82 17.3784 69.2857 16.9919 69.6395 16.5127V16.4744V12.388V12.3497C69.292 11.8619 68.8283 11.4673 68.2899 11.2011C67.7515 10.9348 67.1551 10.8053 66.554 10.824V10.8164Z" fill="#222222"/>
<path d="M75.7559 20.5234V8.34873H79.0959V9.96639L79.3504 9.72873C80.4794 8.69464 81.9653 8.13188 83.5004 8.15706V11.2927C82.6847 11.2863 81.8764 11.4463 81.1255 11.7628C80.3745 12.0793 79.6969 12.5455 79.1344 13.1327V13.1787V20.5387L75.7559 20.5234Z" fill="#222222"/>
<path d="M90.9209 20.8165C90.0801 20.8165 89.2476 20.6519 88.4708 20.3321C87.6941 20.0123 86.9883 19.5436 86.3938 18.9527C85.7992 18.3618 85.3277 17.6604 85.0059 16.8883C84.6842 16.1163 84.5186 15.2888 84.5186 14.4532C84.5186 13.6175 84.6842 12.7901 85.0059 12.018C85.3277 11.246 85.7992 10.5445 86.3938 9.95362C86.9883 9.36273 87.6941 8.89401 88.4708 8.57422C89.2476 8.25444 90.0801 8.08984 90.9209 8.08984C94.1298 8.08984 96.629 10.0832 97.0919 12.9658H93.7441C93.5748 12.3694 93.2057 11.8483 92.698 11.4887C92.1903 11.129 91.5742 10.9523 90.9518 10.9878C90.5009 10.9839 90.054 11.0721 89.6389 11.2472C89.2239 11.4222 88.8495 11.6803 88.5391 12.0054C88.2287 12.3304 87.9889 12.7155 87.8347 13.1366C87.6804 13.5577 87.6151 14.0059 87.6426 14.4532C87.6113 14.8999 87.6742 15.3482 87.8275 15.7692C87.9807 16.1903 88.2208 16.5749 88.5324 16.8984C88.844 17.2218 89.2202 17.4769 89.6369 17.6473C90.0535 17.8177 90.5014 17.8996 90.9518 17.8878C91.5729 17.9333 92.1907 17.7633 92.6998 17.4068C93.209 17.0504 93.5781 16.5294 93.7441 15.9328H97.0919C96.629 18.8155 94.1067 20.8165 90.9209 20.8165Z" fill="#222222"/>
<path d="M108.2 20.5244V14.1381C108.2 12.0988 107.158 10.9334 105.346 10.9334C104.777 10.9795 104.225 11.148 103.728 11.4273C103.231 11.7067 102.801 12.0901 102.469 12.5511L102.43 12.5971V20.5244H99.0977V2.30078H102.43V9.37711L102.685 9.17778C103.667 8.36937 104.904 7.92976 106.179 7.93578C109.434 7.93578 111.532 10.2358 111.532 13.8008V20.5014L108.2 20.5244Z" fill="#222222"/>
<path d="M127.792 20.5222L126.404 17.1106H118.119L116.723 20.5222H113.028L120.58 3.00391H123.935L131.464 20.5222H127.792ZM119.384 13.9979H125.139L122.231 6.95224L119.384 13.9979Z" fill="#222222"/>
<path d="M137.627 20.9143C135.63 20.9143 132.228 20.3393 131.865 16.5059H134.904C135.151 17.7326 136.077 18.3613 137.65 18.3613C139.039 18.3613 139.965 17.8783 139.965 17.1346C139.965 16.5366 139.455 16.0996 138.599 15.9693L135.899 15.5016C134.565 15.2639 132.328 14.4896 132.328 11.9749C132.328 9.46028 134.349 7.98828 137.604 7.98828C139.147 7.98828 142.703 8.37161 143.073 11.9289H140.049C139.903 10.9476 139.008 10.3956 137.604 10.3956C136.2 10.3956 135.591 11.0549 135.591 11.6146C135.591 12.0056 135.799 12.6879 137.211 12.9409L139.525 13.3089C141.993 13.7459 143.197 14.9036 143.197 16.8279C143.135 19.3579 141.029 20.9143 137.627 20.9143Z" fill="#222222"/>
<path d="M150.193 20.9143C148.187 20.9143 144.793 20.3393 144.431 16.5059H147.462C147.709 17.7326 148.635 18.3613 150.216 18.3613C151.597 18.3613 152.491 17.8783 152.491 17.1346C152.491 16.5366 151.982 16.0996 151.134 15.9693L148.434 15.5016C147.1 15.2639 144.863 14.4896 144.863 11.9749C144.863 9.46028 146.884 7.98828 150.139 7.98828C151.682 7.98828 155.238 8.37161 155.608 11.9289H152.584C152.437 10.9476 151.535 10.3956 150.139 10.3956C148.743 10.3956 148.118 11.0549 148.118 11.6146C148.118 12.0056 148.334 12.6879 149.745 12.9409L152.06 13.3089C154.528 13.7459 155.731 14.9036 155.731 16.8279C155.7 19.3579 153.587 20.9143 150.193 20.9143Z" fill="#222222"/>
<path d="M157.976 20.5221V8.34739H161.316V20.5221H157.976ZM159.673 5.71772C159.409 5.73122 159.145 5.69129 158.897 5.60036C158.649 5.50942 158.422 5.36938 158.23 5.18872C158.039 5.00806 157.886 4.79055 157.781 4.54938C157.676 4.30821 157.622 4.0484 157.621 3.78572C157.621 3.24892 157.836 2.73411 158.218 2.35453C158.599 1.97496 159.117 1.76172 159.658 1.76172C160.198 1.76172 160.716 1.97496 161.097 2.35453C161.479 2.73411 161.694 3.24892 161.694 3.78572C161.694 4.04601 161.641 4.30367 161.539 4.54321C161.436 4.78275 161.286 4.99924 161.098 5.17969C160.909 5.36013 160.685 5.5008 160.441 5.59326C160.196 5.68571 159.935 5.72805 159.673 5.71772Z" fill="#222222"/>
<path d="M169.045 20.9143C167.048 20.9143 163.646 20.3393 163.291 16.5059H166.322C166.569 17.7326 167.495 18.3613 169.069 18.3613C170.457 18.3613 171.383 17.8783 171.383 17.1346C171.383 16.5366 170.874 16.0996 170.017 15.9693L167.318 15.5016C165.991 15.2639 163.754 14.4896 163.754 11.9749C163.754 9.46028 165.775 7.98828 169.022 7.98828C170.565 7.98828 174.121 8.37161 174.491 11.9289H171.468C171.329 10.9476 170.426 10.3956 169.022 10.3956C167.618 10.3956 167.009 11.0549 167.009 11.6146C167.009 12.0056 167.217 12.6879 168.629 12.9409L170.943 13.3089C173.419 13.7459 174.615 14.9036 174.615 16.8279C174.553 19.3579 172.447 20.9143 169.045 20.9143Z" fill="#222222"/>
<path d="M182.815 20.9144C179.845 20.9144 177.932 18.8674 177.932 15.7011V11.1011H175.286V8.34872H177.932V3.88672H181.241V8.34872H185.777V11.0857H181.241V15.6857C181.241 17.0964 182.097 17.9014 183.601 17.9014C184.277 17.8804 184.948 17.7801 185.599 17.6024L186.024 20.4007C184.993 20.7587 183.906 20.9326 182.815 20.9144Z" fill="#222222"/>
</g>
<defs>
<clipPath id="clip0_4032_46752">
<rect width="186" height="23" fill="white"/>
</clipPath>
</defs>
</svg>

<svg width="186" height="23" fill="none" xmlns="http://www.w3.org/2000/svg"><g clip-path="url(#a)"><path d="M23.141 6.133v15.334c0 .406-.162.796-.452 1.084-.29.288-.681.449-1.09.449H6.17a6.19 6.19 0 0 1-4.364-1.796A6.114 6.114 0 0 1 0 16.867V6.133c0-1.626.65-3.186 1.807-4.337A6.19 6.19 0 0 1 6.171 0h10.8a6.19 6.19 0 0 1 4.363 1.796 6.114 6.114 0 0 1 1.807 4.337Z" fill="#FAB900"/><path d="m17.741 16.1-2.43-2.415a5.282 5.282 0 0 0 .888-2.951c0-1.062-.317-2.1-.91-2.982a5.392 5.392 0 0 0-2.424-1.976 5.43 5.43 0 0 0-5.884 1.163 5.336 5.336 0 0 0-1.17 5.849c.408.98 1.1 1.818 1.988 2.408.888.59 1.932.905 3 .905a5.362 5.362 0 0 0 2.97-.882l2.43 2.415a1.094 1.094 0 0 0 1.542 0 1.081 1.081 0 0 0 0-1.534Zm-3.556-3.534a3.89 3.89 0 0 1-1.542 1.534 3.874 3.874 0 0 1-3.986-.178A3.839 3.839 0 0 1 7.235 12.2a3.812 3.812 0 0 1 .836-4.178 3.879 3.879 0 0 1 4.203-.831c.705.29 1.307.782 1.73 1.412a3.817 3.817 0 0 1 .18 3.962Z" fill="#fff"/><path d="M11.347 11.276a.773.773 0 0 1-1.319-.544.764.764 0 0 0-.226-.543.774.774 0 0 0-1.317.543c0 .454.137.898.391 1.276s.616.673 1.038.847a2.327 2.327 0 0 0 2.52-.498.764.764 0 0 0-.555-1.265.774.774 0 0 0-.532.184Z" fill="#fff"/><path d="M37.126 20.892c-4.29 0-7.274-2.3-7.645-5.926h3.48c.362 1.825 2.028 2.944 4.373 2.944 1.936 0 3.085-.767 3.085-2.078 0-1.042-.77-1.71-2.314-1.978l-2.908-.574c-3.386-.667-4.967-2.3-4.967-5.03 0-3.312 2.676-5.535 6.664-5.535 1.543 0 6.68.406 7.251 5.512h-3.479c-.223-1.25-1.033-2.66-3.54-2.66-2.006 0-3.248.897-3.248 2.338 0 1.442 1.28 1.925 2.67 2.208l2.198.445c3.718.767 5.307 2.223 5.307 4.853 0 3.327-2.716 5.481-6.927 5.481Zm15.327.024a6.384 6.384 0 0 1-4.716-1.806 6.277 6.277 0 0 1-1.895-4.657 6.168 6.168 0 0 1 .41-2.528 6.198 6.198 0 0 1 1.403-2.147 6.275 6.275 0 0 1 4.698-1.818c3.594 0 6.109 2.56 6.109 6.232.005.341-.013.682-.054 1.02h-9.35v.176a3.162 3.162 0 0 0 1.157 2.044c.634.51 1.44.757 2.253.693a2.513 2.513 0 0 0 2.206-.943h3.51c-.71 2.247-3.008 3.734-5.731 3.734Zm-.077-10.266a3.099 3.099 0 0 0-2.095.66 3.064 3.064 0 0 0-1.122 1.878l-.046.192h6.063v-.177a2.631 2.631 0 0 0-.875-1.875 2.666 2.666 0 0 0-1.964-.678h.039Zm13.576 10.133a6.273 6.273 0 0 1-4.375-1.91 6.197 6.197 0 0 1-1.742-4.423 6.099 6.099 0 0 1 1.705-4.467 6.203 6.203 0 0 1 4.412-1.896 6.292 6.292 0 0 1 3.472.966l.239.153v-.858h3.34v12.174H69.67v-.858l-.239.153a6.291 6.291 0 0 1-3.479.966Zm.602-9.967a3.512 3.512 0 0 0-2.472 1.101 3.472 3.472 0 0 0-.937 2.526 3.423 3.423 0 0 0 .95 2.494 3.463 3.463 0 0 0 2.459 1.07 3.706 3.706 0 0 0 3.085-1.494V12.35a3.66 3.66 0 0 0-3.085-1.526v-.008Zm9.202 9.707V8.35h3.34v1.617l.254-.237a5.999 5.999 0 0 1 4.15-1.572v3.136a5.994 5.994 0 0 0-4.366 1.84v7.405l-3.378-.016Zm15.164.294a6.436 6.436 0 0 1-4.526-1.864 6.33 6.33 0 0 1 0-9A6.437 6.437 0 0 1 90.92 8.09c3.209 0 5.708 1.994 6.17 4.877h-3.347a2.722 2.722 0 0 0-1.046-1.477 2.75 2.75 0 0 0-1.746-.501 3.305 3.305 0 0 0-2.413 1.017 3.262 3.262 0 0 0-.896 2.448 3.193 3.193 0 0 0 .89 2.445 3.233 3.233 0 0 0 2.419.99 2.704 2.704 0 0 0 1.748-.481 2.68 2.68 0 0 0 1.044-1.474h3.348c-.463 2.883-2.985 4.884-6.171 4.884Zm17.28-.293v-6.386c0-2.04-1.042-3.205-2.854-3.205a3.954 3.954 0 0 0-1.618.494c-.497.28-.927.663-1.259 1.124l-.039.046v7.927h-3.332V2.301h3.332v7.076l.255-.2a5.458 5.458 0 0 1 3.494-1.241c3.255 0 5.353 2.3 5.353 5.865v6.7l-3.332.023Zm19.592-.002-1.388-3.411h-8.285l-1.396 3.411h-3.695l7.552-17.518h3.355l7.529 17.518h-3.672Zm-8.408-6.524h5.755l-2.908-7.046-2.847 7.046Zm18.243 6.916c-1.997 0-5.399-.575-5.762-4.408h3.039c.247 1.227 1.173 1.855 2.746 1.855 1.389 0 2.315-.483 2.315-1.226 0-.598-.51-1.035-1.366-1.166l-2.7-.467c-1.334-.238-3.571-1.012-3.571-3.527s2.021-3.987 5.276-3.987c1.543 0 5.099.384 5.469 3.94h-3.024c-.146-.98-1.041-1.532-2.445-1.532s-2.013.659-2.013 1.219c0 .39.208 1.073 1.62 1.326l2.314.368c2.468.437 3.672 1.595 3.672 3.519-.062 2.53-2.168 4.086-5.57 4.086Zm12.566 0c-2.006 0-5.4-.575-5.762-4.408h3.031c.247 1.227 1.173 1.855 2.754 1.855 1.381 0 2.275-.483 2.275-1.226 0-.598-.509-1.035-1.357-1.166l-2.7-.467c-1.334-.238-3.571-1.012-3.571-3.527s2.021-3.987 5.276-3.987c1.543 0 5.099.384 5.469 3.94h-3.024c-.147-.98-1.049-1.532-2.445-1.532s-2.021.659-2.021 1.219c0 .39.216 1.073 1.627 1.326l2.315.368c2.468.437 3.671 1.595 3.671 3.519-.031 2.53-2.144 4.086-5.538 4.086Zm7.783-.392V8.347h3.34v12.175h-3.34Zm1.697-14.804a1.963 1.963 0 0 1-1.443-.53 1.93 1.93 0 0 1-.609-1.403c0-.536.215-1.05.597-1.43a2.04 2.04 0 0 1 1.44-.593c.54 0 1.058.213 1.439.593.382.38.597.894.597 1.43a1.934 1.934 0 0 1-2.021 1.933Zm9.372 15.196c-1.997 0-5.399-.575-5.754-4.408h3.031c.247 1.227 1.173 1.855 2.747 1.855 1.388 0 2.314-.483 2.314-1.226 0-.598-.509-1.035-1.366-1.166l-2.699-.467c-1.327-.238-3.564-1.012-3.564-3.527s2.021-3.987 5.268-3.987c1.543 0 5.099.384 5.469 3.94h-3.023c-.139-.98-1.042-1.532-2.446-1.532-1.404 0-2.013.659-2.013 1.219 0 .39.208 1.073 1.62 1.326l2.314.368c2.476.437 3.672 1.595 3.672 3.519-.062 2.53-2.168 4.086-5.57 4.086Zm13.77 0c-2.97 0-4.883-2.047-4.883-5.213v-4.6h-2.646V8.35h2.646V3.887h3.309v4.462h4.536v2.737h-4.536v4.6c0 1.41.856 2.215 2.36 2.215a8.604 8.604 0 0 0 1.998-.299l.425 2.799a9.313 9.313 0 0 1-3.209.513Z" fill="#222"/></g><defs><clipPath id="a"><path fill="#fff" d="M0 0h186v23H0z"/></clipPath></defs></svg>
